!!!OTL: Vor Zeiten und jetzt
!!!ARE: Europa, Mitteleuropa, Deutschland
!!!SCT: A0210
!!!YEM: Copyright 1995, estate of Helmut Schaffrath.
**kern
*ICvox
*Ivox
!! Mixed meters:  4/2; 3/2
*M3/2
*k[]
*a:
{2r
2a
2a
2a
=1
1gn
2a
[2ccn
=2
2ccn]
4b
4a
2b
2b
=3
1gn}
{2ccn
2b
=4
4b
4a
1a
2g#
=5
1.a}
=6
*M4/2
{2r
2a
2a
2a
=7
1gn
2a
[2ccn
=8
2ccn]
4b
4a
2b
2b
=9
1gn}
{2ccn
2b
=10
4b
4a
1a
2g#
=11
*M3/2
1a}
{2ccn
=12
1b
2a
=13
1gn
2a
=14
2e
2e
2d
=15
1e}
{2ccn
=16
1b
2a
=17
1gn
2a
=18
2e
2e
2d
=19
1e
2r}
=20
{2a
=21
*M4/2
2a
2a
2a
2b
=22
*M3/2
2.ccn
4b
2a
=23
*M4/2
2.b
4a
1gn}
=24
{1a
2ccn
2b
=25
4b
4a
1a
2g#
=26
0a}
==
!!!AGN: Romanze, Ballade, Lied
!! 68 Lieder. Nuernberg bei Berg und Newber 1542 No. 42.
!!!ONB: ESAC (Essen Associative Code) Database: ALTDEU
!!!AMT: irregular
!!!AIN: vox
!!!EED: Helmut Schaffrath
!!!EEV: 1.0
*-
